X: 14
T: Denis Murphy's
Z: Gabby McKinley
S: https://thesession.org/tunes/159#setting49813
R: slide
M: 12/8
L: 1/8
K: Dmaj
B|:"D"A2 D FED F2 A A2 f|"Em"g2 e f2 d "A"e2 d Bcd|
"D"A2 D FED F2 A A2 f|"A"a2 f efe "D"d3 [1dcB:|2d2||
|:A|d2 e f2 f gfe f2 f|"Em"gfe fed "A"e2 d BAB|
"D"d2 e f2 f gfe f2 g|"A"a2 f efe "D"~d3 d2:|

